src/assets/icons/hospital.svg

<svg width="24" height="24" viewBox="0 0 24 24" fill="none" xmlns="http://www.w3.org/2000/svg">
<path d="M12 8.1123V11.2234" stroke="#314158" stroke-width="1.5" stroke-linecap="round" stroke-linejoin="round"/>
<path d="M13.5562 18.9990V16.6657C13.5562 16.2531 13.3923 15.8575 13.1006 15.5657C12.8089 15.2740 12.4132 15.1101 12.0007 15.1101C11.5881 15.1101 11.1924 15.2740 10.9007 15.5657C10.6090 15.8575 10.4451 16.2531 10.4451 16.6657V18.9990" stroke="#314158" stroke-width="1.5" stroke-linecap="round" stroke-linejoin="round"/>
<path d="M13.5562 9.6672H10.4451" stroke="#314158" stroke-width="1.5" stroke-linecap="round" stroke-linejoin="round"/>
<path d="M16.6662 11.2228H18.2218C18.6343 11.2228 19.0300 11.3867 19.3217 11.6784C19.6135 11.9701 19.7774 12.3658 19.7774 12.7783V17.4450C19.7774 17.8576 19.6135 18.2532 19.3217 18.5450C19.0300 18.8367 18.6343 19.0006 18.2218 19.0006H5.7774C5.3648 19.0006 4.9691 18.8367 4.6774 18.5450C4.3857 18.2532 4.2218 17.8576 4.2218 17.4450V10.4450C4.2218 10.0325 4.3857 9.6368 4.6774 9.3451C4.9691 9.0534 5.3648 8.8894 5.7774 8.8894H7.3329" stroke="#314158" stroke-width="1.5" stroke-linecap="round" stroke-linejoin="round"/>
<path d="M16.6675 18.9987V6.5543C16.6675 6.1417 16.5036 5.7460 16.2119 5.4543C15.9202 5.1626 15.5245 4.9987 15.1120 4.9987H8.8897C8.4772 4.9987 8.0815 5.1626 7.7898 5.4543C7.4981 5.7460 7.3342 6.1417 7.3342 6.5543V18.9987" stroke="#314158" stroke-width="1.5" stroke-linecap="round" stroke-linejoin="round"/>
</svg>

<svg fill="none" viewBox="0 0 24 24"><path stroke="currentColor" stroke-linecap="round" stroke-linejoin="round" stroke-width="1.5" d="M12 8.112v3.111M13.556 18.999v-2.333a1.556 1.556 0 0 0-3.11 0v2.333M13.556 9.667h-3.11"/><path stroke="currentColor" stroke-linecap="round" stroke-linejoin="round" stroke-width="1.5" d="M16.666 11.223h1.556a1.556 1.556 0 0 1 1.555 1.555v4.667a1.556 1.556 0 0 1-1.555 1.556H5.777a1.556 1.556 0 0 1-1.555-1.556v-7a1.556 1.556 0 0 1 1.555-1.556h1.556"/><path stroke="currentColor" stroke-linecap="round" stroke-linejoin="round" stroke-width="1.5" d="M16.668 18.999V6.554A1.556 1.556 0 0 0 15.112 5H8.89a1.556 1.556 0 0 0-1.556 1.555V19"/></svg>
